build/assets/images/svg/icons/menu/b-dots.svg

<svg width="28" height="24" viewBox="0 0 28 24" fill="none" xmlns="http://www.w3.org/2000/svg">
<path fill-rule="evenodd" clip-rule="evenodd" d="M20.2972 4C20.2972 5.10457 21.3069 6 22.5525 6C23.798 6 24.8077 5.10457 24.8077 4C24.8077 2.89543 23.798 2 22.5525 2C21.3069 2 20.2972 2.89543 20.2972 4ZM22.5525 14C21.3069 14 20.2972 13.1046 20.2972 12C20.2972 10.8954 21.3069 10 22.5525 10C23.798 10 24.8077 10.8954 24.8077 12C24.8077 13.1046 23.798 14 22.5525 14ZM22.5525 22C21.3069 22 20.2972 21.1046 20.2972 20C20.2972 18.8954 21.3069 18 22.5525 18C23.798 18 24.8077 18.8954 24.8077 20C24.8077 21.1046 23.798 22 22.5525 22ZM13.5313 22C12.2858 22 11.276 21.1046 11.276 20C11.276 18.8954 12.2858 18 13.5313 18C14.7769 18 15.7866 18.8954 15.7866 20C15.7866 21.1046 14.7769 22 13.5313 22ZM11.276 12C11.276 13.1046 12.2858 14 13.5313 14C14.7769 14 15.7866 13.1046 15.7866 12C15.7866 10.8954 14.7769 10 13.5313 10C12.2858 10 11.276 10.8954 11.276 12ZM13.5313 6C12.2858 6 11.276 5.10457 11.276 4C11.276 2.89543 12.2858 2 13.5313 2C14.7769 2 15.7866 2.89543 15.7866 4C15.7866 5.10457 14.7769 6 13.5313 6ZM2.25488 20C2.25488 21.1046 3.26461 22 4.51017 22C5.75573 22 6.76545 21.1046 6.76545 20C6.76545 18.8954 5.75573 18 4.51017 18C3.26461 18 2.25488 18.8954 2.25488 20ZM4.51017 14C3.26461 14 2.25488 13.1046 2.25488 12C2.25488 10.8954 3.26461 10 4.51017 10C5.75573 10 6.76545 10.8954 6.76545 12C6.76545 13.1046 5.75573 14 4.51017 14ZM2.25488 4C2.25488 5.10457 3.26461 6 4.51017 6C5.75573 6 6.76545 5.10457 6.76545 4C6.76545 2.89543 5.75573 2 4.51017 2C3.26461 2 2.25488 2.89543 2.25488 4Z" fill="#203686"/>
</svg>

<svg width="28" height="24" fill="none" xmlns="http://www.w3.org/2000/svg"><path fill-rule="evenodd" clip-rule="evenodd" d="M20.297 4c0 1.105 1.01 2 2.255 2 1.246 0 2.256-.895 2.256-2s-1.01-2-2.256-2c-1.245 0-2.255.895-2.255 2zm2.255 10c-1.245 0-2.255-.895-2.255-2s1.01-2 2.255-2c1.246 0 2.256.895 2.256 2s-1.01 2-2.256 2zm0 8c-1.245 0-2.255-.895-2.255-2s1.01-2 2.255-2c1.246 0 2.256.895 2.256 2s-1.01 2-2.256 2zm-9.02 0c-1.246 0-2.256-.895-2.256-2s1.01-2 2.255-2c1.246 0 2.256.895 2.256 2s-1.01 2-2.256 2zm-2.256-10c0 1.105 1.01 2 2.255 2 1.246 0 2.256-.895 2.256-2s-1.01-2-2.256-2c-1.245 0-2.255.895-2.255 2zm2.255-6c-1.245 0-2.255-.895-2.255-2s1.01-2 2.255-2c1.246 0 2.256.895 2.256 2s-1.01 2-2.256 2zM2.255 20c0 1.105 1.01 2 2.255 2 1.246 0 2.255-.895 2.255-2s-1.01-2-2.255-2c-1.245 0-2.255.895-2.255 2zm2.255-6c-1.245 0-2.255-.895-2.255-2s1.01-2 2.255-2c1.246 0 2.255.895 2.255 2s-1.01 2-2.255 2zM2.255 4c0 1.105 1.01 2 2.255 2 1.246 0 2.255-.895 2.255-2S5.755 2 4.51 2c-1.245 0-2.255.895-2.255 2z" fill="#203686"/></svg>
